X:1
T:Rapture Indeed!
T:William Edie Marks
T:Rapture Indeed!
T:Public Domain
T:Public Domain
C:William Edie Marks
Z:Public Domain
%%score ( 1 2 ) ( 3 4 )
L:1/8
M:6/8
K:Bb
V:1 treble 
V:2 treble 
V:3 bass 
V:4 bass 
V:1
 [DB][DB][DB] [B,D][CE][DF] | [FA][EG][EG] [EG]2 z | [EA][EA][EA] [A,C][B,D][CE] | %3
w: 1.~Af- ter my tri- als and|trou- bles are past,|Af- ter my bur- dens a-|
w: 2.~When the last bat- tle with|sin shall be o’er,|When the wild tem- pest can|
w: 3.~When I be- hold Him and|praise Him up there,|Sing- ing with an- gels in|
 [EG][DF][DF] [DF]2 z | [DB][DB][DB] [B,D][CE][DF] | [FA][EG][EG] [EG]2 z | %6
w: side have been cast,|I shall see Je- sus my|Sav- ior at last,|
w: beat me no more,|I shall see Je- sus on|Heav- en’s glad shore,|
w: gar- ments most fair,|When in His glo- ry at|last I shall share,|
 [=EG][EG][EG] [EG][FA][EB] | ([Fc]3 F3) ||"^Refrain" (DDD) (DD)[DB] | [EB][EA][FA] [FA]3 | %10
w: That will be rap- ture in-|deed! *|will * * be * rap-|deed, Glo- ry and|
w: That will be rap- ture in-|deed! *|||
w: That will be rap- ture in-|deed! *|||
 (EEE) (EE)[Ec] | [Ec][DB][DB] [DB]3 |"^Poco a poco" [DF][EG][EA] [DB][EA][FB] | %13
w: rap- * * ture * in-|I shall see Him|who died on the tree; O|
w: |||
w: |||
 [EG][Gc][Gd] (ed)[Gc] | [Bf][Fe][Fd] [Fc][Fd][Ec] | (DFE [DB]2) z |] %16
w: that will be rap- * ture|me! * * * * *||
w: |||
w: |||
V:2
 x6 | x6 | x6 | x6 | x6 | x6 | x6 | x3 F3 || F3 G2 x | x6 | F3 A2 x | x6 | x6 | x3 G2 x | x6 | %15
w: |||||||That|ture in-||deed, When|||for||
 B3- x3 |] %16
w: |
V:3
 [B,,F,][B,,F,][B,,F,] [B,,F,][B,,F,][B,,B,] | [E,B,][E,B,][E,B,] [E,B,]2 z | F,F,F, F,F,[F,A,] | %3
w: ~ ~ ~ ~ ~ ~|~ ~ ~ ~|~ ~ ~ ~ ~ ~|
 [A,,B,][A,,B,][A,,B,] [A,,B,]2 z | [B,,F,][B,,F,][B,,F,] [B,,F,][B,,F,][B,,B,] | %5
w: ~ ~ ~ ~|~ ~ ~ ~ ~ ~|
 [E,B,][E,B,][E,B,] [E,B,]2 z | [C,C][C,C][C,C] [C,C][C,C][C,B,] | ([F,A,]3 [F,A,]3) || %8
w: ~ ~ ~ ~|~ ~ That will be glo-|ry *|
 [B,,B,][B,,B,][B,,B,] [B,,B,][B,,B,][B,,B,] | [F,C][F,C][F,C] [F,C]3 | %10
w: and rap- ture in- deed, That|will be glo- ry|
 [F,A,][F,A,][F,A,] [F,C][F,C][F,A,] | [B,,B,][B,,B,][B,,B,] [B,,B,]3 | %12
w: and rap- ture in- deed, ~|~ ~ ~ ~|
 [B,,A,][B,,A,][B,,A,] [B,,A,][C,F,][D,B,] | [E,B,][E,C][E,=B,] ([C,C][D,B,])[E,C] | %14
w: ~ ~ ~ ~ ~ ~|~ ~ ~ ~ * ~|
 [F,D][F,C][F,B,] [F,A,][F,B,][F,A,] | B,A,G, [B,,F,]2 z |] %16
w: be rap- ture for~me! * *||
V:4
 x6 | x6 | F,F,F, F,F, x | x6 | x6 | x6 | x6 | x6 || x6 | x6 | x6 | x6 | x6 | x6 | x6 | B,,3- x3 |] %16
w: ||~ ~ ~ ~ ~||||||||||||||

